X: 592
T: Nao wugeng
L: 1/8
M: 2/4
K: A
B2F2 [I:setbarnb 1]| 
B2F2 | 
B A B c | 
B FE2 | 
F c A c | 
B FA2 | 
A F A F | 
E DB,2 | 
B AF2 | 
B AF2 | 
B A B c | 
B FE2 | 
E FA2 | 
G EF2 | 
E F E F | 
FA2C | 
B,4 |]

@@@ Tune index: 9466
